X:21138 
T:MISS WISEMAN'S FANCY 
B:DMI.0208
Z:Nordberg/Black
R:jig
%Q:1/4=160
M:6/8
L:1/8
K:G 
"simplified version"
D|DGG GBG|AFD DGA|fdf ecA|BGd AFD|
DGG GBG|AFD DGA|fed ecA|AGG G2:|
e|gfg GFG|fef FGA|fed efd|cAG FED|
gfg GFG|fef FGA|fed ecA|AGG G2:|
c|BGd BGd|AFD DGA|f2d e2d|cAG FDC|
DGG BGd|AFD DGA|fed ecA|AGG G2:|


%%%

